assets/fc/fc-do-not-inhale.svg

<svg xmlns="http://www.w3.org/2000/svg" width="100%" height="100%" viewBox="0 0 48 48"><path fill="#FFA726" d="M33.5 20C31.2 17.7 30 13.9 30 9V6H18v3c0 4.9-1.2 8.7-3.5 11-2.4.2-5.5 2-5.5 5.4 0 4.5 5.1 4.6 6 4.6 1.2 0 6.1 4 8 4h2c1.9 0 6.8-4 8-4 .9 0 6-.1 6-4.6 0-3.4-3.1-5.2-5.5-5.4z"/><path fill="#FFA726" d="M33.5 20C31.2 17.7 30 13.9 30 9V6H18v3c0 4.9-1.2 8.7-3.5 11-2.4.2-5.5 2-5.5 5.4 0 4.5 5.1 4.6 6 4.6 1.2 0 6.1 4 8 4h2c1.9 0 6.8-4 8-4 .9 0 6-.1 6-4.6 0-3.4-3.1-5.2-5.5-5.4z"/><path fill="#FFB74D" d="M26 9V6h-4v3c0 4.9-3 19-3 19s1.6 2 5 2 5-2 5-2-3-14.1-3-19z"/><path fill="#CC861E" d="M23 34c-3.3 0-6.4-3.1-8-4h1.8c3.1 0 4.5 4 6.2 4zM25 34c3.3 0 6.4-3.1 8-4h-1.8c-3.1 0-4.5 4-6.2 4z"/><path fill="#37474F" d="M3.563 6.396L6.39 3.568l37.966 37.966-2.828 2.828z"/><g fill="#FF5722"><path d="M18 35l4 4h-8z"/><path d="M17 38h2v4h-2zM30 35l4 4h-8z"/><path d="M29 38h2v4h-2z"/></g></svg>

<svg xmlns="http://www.w3.org/2000/svg" width="100%" height="100%" viewBox="0 0 48 48"><path fill="#FFA726" d="M33.5,20C31.2,17.7,30,13.9,30,9c0-3.2,0-3,0-3H18c0,0,0-0.2,0,3c0,4.9-1.2,8.7-3.5,11 C12.1,20.2,9,22,9,25.4c0,4.5,5.1,4.6,6,4.6c1.2,0,6.1,4,8,4c0,0,0.7,0,1,0s1,0,1,0c1.9,0,6.8-4,8-4c0.9,0,6-0.1,6-4.6 C39,22,35.9,20.2,33.5,20z"/><path fill="#FFA726" d="M33.5,20C31.2,17.7,30,13.9,30,9c0-3.2,0-3,0-3H18c0,0,0-0.2,0,3c0,4.9-1.2,8.7-3.5,11 C12.1,20.2,9,22,9,25.4c0,4.5,5.1,4.6,6,4.6c1.2,0,6.1,4,8,4c0,0,0.7,0,1,0s1,0,1,0c1.9,0,6.8-4,8-4c0.9,0,6-0.1,6-4.6 C39,22,35.9,20.2,33.5,20z"/><path fill="#FFB74D" d="M26,9c0-3.2,0-3,0-3h-4c0,0,0-0.2,0,3c0,4.9-3,19-3,19s1.6,2,5,2s5-2,5-2S26,13.9,26,9z"/><path fill="#CC861E" d="M23 34c-3.3 0-6.4-3.1-8-4 0 0 .7 0 1.8 0C19.9 30 21.3 34 23 34zM25 34c3.3 0 6.4-3.1 8-4 0 0-.7 0-1.8 0C28.1 30 26.7 34 25 34z"/><path fill="#37474F" d="M22 -2.9H26V50.800000000000004H22z" transform="rotate(-45 23.997 24.006)"/><g fill="#FF5722"><path d="M18 35L22 39 14 39z"/><path d="M17 38H19V42H17zM30 35L34 39 26 39z"/><path d="M29 38H31V42H29z"/></g></svg>
